X:1
T:Title
%%score 1 2
L:1/8
Q:1/4=97
M:4/4
K:F
V:1 treble nm="Grand Piano, Soprano"
V:2 bass nm="Choir Pad, Rejoice and Shout Aloud"
V:1
 [FA]2 [FA]2- [FA][CG] [CF]>C | [B,D]>[DB] [CA]6 | [CF]2 [EG]2- [EG][CF] [CE]>C | [CD]>C [CF]6 | %4
w: By~Isaac~H.~Bullers * * * * *||||
 [FA]2 [FA]2- [FA][CG] [CF]>C | [B,D]>[DB] [CA]6 | [Ec]2 [EG]2- [EG][FA] [F=B]>[FG] | %7
w: |||
 [FA]>[F=B] [Ec]6 | [Bc]2 [Ac]4- [Ac]>[Bd] | [Ac]>[_A=B] [=Ac]4 z2 | [Ac]2 [GB]4- [GB]>[DB] | %11
w: ||||
 [CA]>[=B,_A] [C=A]6 | [Ac]2 [Ac]4- [Ac]>[Bd] | [Ac]>[_A=B] [=Ac]4 z2 | %14
w: |||
 [Ac]2 [Fd]>[Fd] [Bd]>[Bf] [Be]>[Bc] | [Bd]>[Be] [Af]6- | [Af]2 z2 z4 |] %17
w: |||
V:2
 [F,C]2 [F,C]2- [F,C][F,B,] [F,A,]>[F,A,] | [B,,B,]>[B,,F,] F,6 | %2
 [F,A,]2 [C,B,]2- [C,B,][C,B,] [C,B,]>[C,B,] | [C,B,]>[C,B,] [F,A,]6 | %4
 [F,C]2 [F,C]2- [F,C][F,B,] [F,A,]>[F,A,] | [B,,B,]>[B,,F,] F,6 | %6
 [C,G,]2 [C,C]2- [C,C][C,C] G,>[G,=B,] | [G,=B,]>G, [C,G,]6 | z4 [F,C]2 [F,C]2 | %9
 z2 z z/ [F,C]/ [F,C]>[F,C] [F,C]2 | z4 [C,C]2 [C,C]2 | z2 z z/ [F,A,]/ [F,A,]>[F,A,] [F,A,]2 | %12
 z4 [F,C]2 [F,C]2 | z2 z z/ [F,C]/ [F,C]>[F,C] [F,C]2 | [F,C]2 B,>B, B,>[B,D] C>C | %15
 [C,C]>[C,C] [F,C]6- | [F,C]2 z2 z4 |] %17

